X:633
T:Cumberland, The
T:Miss Gibson [2]
R:Reel
B:The Athole Collection
M:C|
L:1/8
K:B_
F|B2 b>g fdcB|AFcF dFcF|B2 b>g fdcB|FBAc dBB:|
|:c|BGFE DEFD|ECC=B cGGA|BGFE D>EFD|B,BAc dBB:|

